X: 461
T: The Maid in the Mill
P: Longways for as many as will
%R: jig
B: "The Dancing-Master: Containing Directions and Tunes for Dancing" printed by W. Pearson for John Walsh, London ca. 1709
S: 7: DMDfD http://digital.nls.uk/special-collections-of-printed-music/pageturner.cfm?id=89751228 p.32
Z: 2013 John Chambers <jc:trillian.mit.edu>
M: 6/4
L: 1/4
K: Dm
% - - - - - - - - - - - - - - - - - - - - - - - - -
A |\
d2e fcA | GAF c2A | def efd | a3- a2 |][| a | bag a2e | fed g2a |\
f>ef g/f/ed | ^c3- c2A | AGF E2D | D2d ^c2d | eAf e2d | d3- d2 |]
% - - - - - - - - - - - - - - - - - - - - - - - - -
%%begintext align
%% The 1. cu cast off below the 2. cu. lead up all four hands a Breast; then all four hands half round,
%% then right and left with your Partners till the 1. cu. come into the 2. cu. place.
%%endtext
%%sep 1 8 500

%%sep 1 1 500
%%sep 1 1 500
